src/blocks/copyright-bar/instagram.svg

<svg width="22" height="22" viewBox="0 0 22 22" fill="none" xmlns="http://www.w3.org/2000/svg">
<path d="M11 6.03369C10.0312 6.03369 9.125 6.28369 8.28125 6.78369C7.46875 7.25244 6.8125 7.90869 6.3125 8.75244C5.84375 9.56494 5.60938 10.4556 5.60938 11.4243C5.60938 12.3931 5.84375 13.2993 6.3125 14.1431C6.8125 14.9556 7.46875 15.6118 8.28125 16.1118C9.125 16.5806 10.0312 16.8149 11 16.8149C11.9688 16.8149 12.8594 16.5806 13.6719 16.1118C14.5156 15.6118 15.1719 14.9556 15.6406 14.1431C16.1406 13.2993 16.3906 12.3931 16.3906 11.4243C16.3906 10.4556 16.1406 9.56494 15.6406 8.75244C15.1719 7.90869 14.5156 7.25244 13.6719 6.78369C12.8594 6.28369 11.9688 6.03369 11 6.03369ZM11 14.9399C10.0312 14.9399 9.20312 14.5962 8.51562 13.9087C7.82812 13.2212 7.48438 12.3931 7.48438 11.4243C7.48438 10.4556 7.82812 9.62744 8.51562 8.93994C9.20312 8.25244 10.0312 7.90869 11 7.90869C11.9688 7.90869 12.7969 8.25244 13.4844 8.93994C14.1719 9.62744 14.5156 10.4556 14.5156 11.4243C14.5156 12.3931 14.1719 13.2212 13.4844 13.9087C12.7969 14.5962 11.9688 14.9399 11 14.9399ZM17.8906 5.79932C17.8594 6.14307 17.7188 6.43994 17.4688 6.68994C17.25 6.93994 16.9688 7.06494 16.625 7.06494C16.2812 7.06494 15.9844 6.93994 15.7344 6.68994C15.4844 6.43994 15.3594 6.14307 15.3594 5.79932C15.3594 5.45557 15.4844 5.15869 15.7344 4.90869C15.9844 4.65869 16.2812 4.53369 16.625 4.53369C16.9688 4.53369 17.2656 4.65869 17.5156 4.90869C17.7656 5.15869 17.8906 5.45557 17.8906 5.79932ZM21.4531 7.06494C21.3906 6.15869 21.25 5.37744 21.0312 4.72119C20.75 3.93994 20.3125 3.26807 19.7188 2.70557C19.1562 2.11182 18.4844 1.67432 17.7031 1.39307C17.0469 1.17432 16.2656 1.04932 15.3594 1.01807C14.4844 0.955566 13.0312 0.924316 11 0.924316C8.96875 0.924316 7.5 0.955566 6.59375 1.01807C5.71875 1.04932 4.95312 1.17432 4.29688 1.39307C3.51562 1.67432 2.82812 2.11182 2.23438 2.70557C1.67188 3.26807 1.25 3.93994 0.96875 4.72119C0.75 5.37744 0.609375 6.15869 0.546875 7.06494C0.515625 7.93994 0.5 9.39307 0.5 11.4243C0.5 13.4556 0.515625 14.9243 0.546875 15.8306C0.609375 16.7056 0.75 17.4712 0.96875 18.1274C1.25 18.9087 1.67188 19.5962 2.23438 20.1899C2.82812 20.7524 3.51562 21.1587 4.29688 21.4087C4.95312 21.6587 5.71875 21.7993 6.59375 21.8306C7.5 21.8931 8.96875 21.9243 11 21.9243C13.0312 21.9243 14.4844 21.8931 15.3594 21.8306C16.2656 21.7993 17.0469 21.6743 17.7031 21.4556C18.4844 21.1743 19.1562 20.7524 19.7188 20.1899C20.3125 19.5962 20.75 18.9087 21.0312 18.1274C21.25 17.4712 21.375 16.7056 21.4062 15.8306C21.4688 14.9243 21.5 13.4556 21.5 11.4243C21.5 9.39307 21.4844 7.93994 21.4531 7.06494ZM19.2031 17.6118C18.8281 18.5493 18.1562 19.2212 17.1875 19.6274C16.6875 19.8149 15.8438 19.9399 14.6562 20.0024C14 20.0337 13.0312 20.0493 11.75 20.0493H10.25C9 20.0493 8.03125 20.0337 7.34375 20.0024C6.1875 19.9399 5.34375 19.8149 4.8125 19.6274C3.875 19.2524 3.20312 18.5806 2.79688 17.6118C2.60938 17.0806 2.48438 16.2368 2.42188 15.0806C2.39062 14.3931 2.375 13.4243 2.375 12.1743V10.6743C2.375 9.42432 2.39062 8.45557 2.42188 7.76807C2.48438 6.58057 2.60938 5.73682 2.79688 5.23682C3.17188 4.26807 3.84375 3.59619 4.8125 3.22119C5.34375 3.03369 6.1875 2.90869 7.34375 2.84619C8.03125 2.81494 9 2.79932 10.25 2.79932H11.75C13 2.79932 13.9688 2.81494 14.6562 2.84619C15.8438 2.90869 16.6875 3.03369 17.1875 3.22119C18.1562 3.59619 18.8281 4.26807 19.2031 5.23682C19.3906 5.73682 19.5156 6.58057 19.5781 7.76807C19.6094 8.42432 19.625 9.39307 19.625 10.6743V12.1743C19.625 13.4243 19.6094 14.3931 19.5781 15.0806C19.5156 16.2368 19.3906 17.0806 19.2031 17.6118Z" fill="url(#paint0_linear)"/>
<defs>
<linearGradient id="paint0_linear" x1="11" y1="-0.575684" x2="11" y2="23.2076" gradientUnits="userSpaceOnUse">
<stop stop-color="#BC9CFF"/>
<stop offset="1" stop-color="#8BA4F9"/>
</linearGradient>
</defs>
</svg>

<svg xmlns="http://www.w3.org/2000/svg" width="22" height="22" fill="none"><path fill="url(#paint0_linear)" d="M11 6.03a5.4 5.4 0 00-5.4 5.4c0 .96.24 1.87.71 2.71.5.82 1.16 1.47 1.97 1.97a5.5 5.5 0 005.4 0A5.4 5.4 0 0011 6.03zm0 8.91c-.97 0-1.8-.34-2.48-1.03a3.39 3.39 0 01-1.04-2.49c0-.96.35-1.8 1.04-2.48A3.39 3.39 0 0111 7.91c.97 0 1.8.34 2.48 1.03a3.39 3.39 0 011.04 2.48c0 .97-.35 1.8-1.04 2.49A3.39 3.39 0 0111 14.94zm6.9-9.14a1.4 1.4 0 01-.43.89c-.22.25-.5.37-.84.37-.35 0-.65-.12-.9-.37a1.22 1.22 0 01-.37-.9c0-.33.12-.63.37-.88s.55-.38.9-.38c.34 0 .64.13.89.38s.37.55.37.89zm3.55 1.26c-.06-.9-.2-1.68-.42-2.34a5.13 5.13 0 00-1.31-2.01 5.13 5.13 0 00-2.02-1.32 8.36 8.36 0 00-2.34-.37c-.88-.06-2.33-.1-4.36-.1-2.03 0-3.5.04-4.4.1a8.2 8.2 0 00-2.3.37A5.54 5.54 0 00.97 4.72a9.54 9.54 0 00-.42 2.34C.52 7.94.5 9.4.5 11.42c0 2.04.02 3.5.05 4.41.06.88.2 1.64.42 2.3.28.78.7 1.47 1.26 2.06.6.56 1.29.97 2.07 1.22.65.25 1.42.39 2.3.42.9.06 2.37.1 4.4.1 2.03 0 3.48-.04 4.36-.1.9-.03 1.69-.16 2.34-.37a5.4 5.4 0 003.33-3.33 8.2 8.2 0 00.38-2.3 139.13 139.13 0 00.05-8.77zM19.2 17.61a3.55 3.55 0 01-2.01 2.02 9.4 9.4 0 01-2.53.37c-.66.03-1.63.05-2.91.05h-1.5a68.3 68.3 0 01-2.9-.05c-1.16-.06-2-.19-2.54-.37A3.55 3.55 0 012.8 17.6a9.87 9.87 0 01-.38-2.53c-.03-.69-.04-1.66-.04-2.9v-1.5c0-1.26.01-2.22.04-2.91a9.4 9.4 0 01.38-2.53A3.38 3.38 0 014.8 3.22a9.87 9.87 0 012.53-.37 68.4 68.4 0 012.91-.05h1.5c1.25 0 2.22.01 2.9.05a9.4 9.4 0 012.54.37 3.38 3.38 0 012.01 2.02c.2.5.32 1.34.38 2.53.03.65.05 1.62.05 2.9v1.5c0 1.25-.02 2.22-.05 2.91-.06 1.16-.19 2-.38 2.53z"/><defs><linearGradient id="paint0_linear" x1="11" x2="11" y1="-.576" y2="23.208" gradientUnits="userSpaceOnUse"><stop stop-color="#BC9CFF"/><stop offset="1" stop-color="#8BA4F9"/></linearGradient></defs></svg>
